!!!OTL: Sisifangfang yipanqi
!!!ARE: Asia, China,ÿGuangxi Guiping
!! II, 475
!!!SCT: C1982
!!!YEM: Copyright 1995, estate of Helmut Schaffrath.
**kern
*ICvox
*Ivox
!! 3+2 metric grouping
!! Mixed meters:  4/4; 5/4
*M4/4
*k[f#c#g#]
*A:
{4cc#
4cc#
8b
8cc#
2cc#
=1
4b
4f#
2cc#
8ee
8r}
=2
{4cc#
8a
8cc#
4a
4.f#
8a
=3
4f#
4f#
4a
4.cc#
8a
=4
1f#}
=5
*M5/4
{4cc#
4cc#
8b
8cc#
2cc#
=6
8b
8a
8f#
8cc#
8b
4.cc#
8ee
8r}
=7
{4cc#
8a
8f#
4cc#
4.f#
8a
=8
4f#
4f#
4b
4.cc#
8a
=9
*M4/4
1f#}
=10
*M5/4
{4f#
4b
4a
8a
4.f#
=11
4b
4f#
8b
4.cc#
8ee
8r}
=12
{4cc#
8a
8cc#
4a
4.f#
8a
=13
4f#
4f#
4a
4.cc#
8a
=14
*M4/4
1f#}
=15
*M5/4
{4cc#
4cc#
8b
8cc#
4cc#
8b
8f#
=16
8a
8b
8f#
8cc#
8b
4.cc#
8ee
8r}
=17
{4cc#
8a
8f#
4cc#
4.f#
8a
=18
4f#
4f#
4b
4.cc#
8a
=19
1f#}
==
!!!AGN: Shange
!!!AMT: irregular
!!!AIN: vox
!!!EED: Helmut Schaffrath
!!!EEV: 1.0
*-
